public/library/triple-a-icon-light.svg

<svg width="335" height="87" viewBox="0 0 335 87" fill="none" xmlns="http://www.w3.org/2000/svg">
<mask id="mask0_2428_55875" style="mask-type:luminance" maskUnits="userSpaceOnUse" x="0" y="0" width="335" height="87">
<path d="M0 0H334.562V87H0V0Z" fill="white"/>
</mask>
<g mask="url(#mask0_2428_55875)">
<path d="M118.163 22.9451L112.89 9.02053L107.613 22.9451H118.163ZM101.98 37.9045H95.7274L110.045 1.79496H115.887L130.26 37.9045H123.799L120.024 28.0003H105.754L101.98 37.9045ZM141.902 32.9524V37.9045H138.903C134.096 37.9045 131.561 34.9649 131.561 30.4248V1.79496H137.302V30.0654C137.302 31.9199 138.077 32.9524 139.885 32.9524H141.902ZM145.613 16.2392H140.702V11.5458H145.613V6.1793L151.301 2.87788V11.5458H157.349V16.2392H151.301V28.9802C151.301 31.5604 152.333 32.9524 154.559 32.9524H157.349V37.9045H153.937C148.508 37.9045 145.613 34.5001 145.613 29.3419V16.2392ZM164.272 21.9149H177.454C176.729 17.6839 174.301 15.7241 170.992 15.7241C167.424 15.7241 164.997 17.8396 164.272 21.9149ZM183.293 25.9901H164.065C164.478 31.0956 167.268 33.5225 171.096 33.5225C174.402 33.5225 176.937 32.0755 178.438 28.2063L183.296 30.0654C181.072 35.9951 176.419 38.4723 171.199 38.4723C163.65 38.4723 158.274 32.9547 158.274 24.6989C158.274 16.4453 163.597 10.978 171.043 10.978C178.229 10.978 183.346 16.4453 183.346 24.5455C183.346 25.0102 183.346 25.5254 183.296 25.9878L183.293 25.9901ZM201.168 10.978V17.0657H198.478C195.117 17.0657 192.742 19.6964 192.742 23.925V37.9045H187.001V11.5458H192.742V15.6715C194.24 12.4731 196.721 10.978 199.72 10.978H201.168ZM226.391 21.141V37.9045H220.653V22.0705C220.653 18.3044 218.427 16.0355 215.329 16.0355C211.759 16.0355 209.226 18.4074 209.226 22.3292V37.9068H203.487V11.5458H209.226V15.2593C210.88 12.2143 213.723 10.978 216.825 10.978C222.357 10.978 226.391 15.0006 226.391 21.141ZM247.767 30.2714C247.767 27.6912 245.234 26.2992 241.668 26.2992C238.151 26.2992 235.514 27.6385 235.514 30.2714C235.514 32.8494 238.151 34.191 241.668 34.191C245.234 34.191 247.767 32.799 247.767 30.2714ZM253.352 21.3974V37.9045H247.973V35.3266C246.37 37.3894 243.579 38.4723 239.959 38.4723C234.014 38.4723 229.622 35.48 229.622 30.3218C229.622 25.2163 234.119 22.1209 240.321 22.1209C243.579 22.1209 246.113 23.0481 247.664 24.6989V21.9652C247.664 17.8396 245.08 16.0858 241.512 16.0858C238.307 16.0858 236.083 17.8396 235.152 20.6762L230.345 18.7668C231.949 13.4026 236.446 10.978 241.719 10.978C247.817 10.978 253.352 14.1764 253.352 21.3974ZM259.992 16.2392H255.082V11.5458H259.992V6.1793L265.68 2.87788V11.5458H271.729V16.2392H265.68V28.9802C265.68 31.5604 266.715 32.9524 268.938 32.9524H271.729V37.9045H268.317C262.888 37.9045 259.992 34.5001 259.992 29.3419V16.2392ZM274.386 11.5458H280.124V37.9045H274.386V11.5458ZM273.507 4.11648C273.507 1.89798 275.159 0.505981 277.332 0.505981C279.452 0.505981 281.106 1.89798 281.106 4.11648C281.106 6.33727 279.452 7.67661 277.332 7.67661C275.159 7.67661 273.507 6.33498 273.507 4.11648ZM288.467 11.5458L295.498 30.2188L302.478 11.5458H308.579L298.134 37.9045H292.758L282.212 11.5458H288.467ZM314.294 21.9149H327.479C326.756 17.6839 324.326 15.7241 321.015 15.7241C317.449 15.7241 315.019 17.8396 314.294 21.9149ZM333.32 25.9901H314.09C314.503 31.0956 317.293 33.5225 321.12 33.5225C324.427 33.5225 326.962 32.0755 328.461 28.2063L333.32 30.0654C331.097 35.9951 326.446 38.4723 321.224 38.4723C313.675 38.4723 308.299 32.9547 308.299 24.6989C308.299 16.4453 313.624 10.978 321.068 10.978C328.254 10.978 333.371 16.4453 333.371 24.5455C333.371 25.0102 333.371 25.5254 333.32 25.9878V25.9901ZM118.163 70.9279L112.89 57.0033L107.613 70.9302H118.161L118.163 70.9279ZM101.98 85.8896H95.7274L110.048 49.78H115.889L130.262 85.8896H123.801L120.026 75.9854H105.754L101.98 85.8896ZM132.343 59.5286H138.08V85.8896H132.343V59.5286ZM131.465 52.1016C131.465 49.8808 133.117 48.4888 135.29 48.4888C137.41 48.4888 139.064 49.8831 139.064 52.1016C139.064 54.3178 137.41 55.6594 135.29 55.6594C133.119 55.6594 131.465 54.3201 131.465 52.1016ZM157.147 58.9608V65.0508H154.46C151.099 65.0508 148.722 67.6791 148.722 71.9101V85.8896H142.983V59.5263H148.719V63.6542C150.22 60.4558 152.703 58.9608 155.699 58.9608H157.147ZM169.834 80.9375V85.8896H166.835C162.028 85.8896 159.492 82.9476 159.492 78.4099V49.78H165.233V78.0482C165.233 79.9049 166.009 80.9375 167.817 80.9375H169.834ZM172.062 59.5286H177.798V85.8896H172.062V59.5286ZM171.183 52.1016C171.183 49.8808 172.835 48.4888 175.008 48.4888C177.128 48.4888 178.782 49.8831 178.782 52.1016C178.782 54.3178 177.13 55.6594 175.008 55.6594C172.837 55.6594 171.183 54.3201 171.183 52.1016ZM205.603 69.1238V85.8896H199.864V70.0533C199.864 66.2871 197.641 64.016 194.541 64.016C190.973 64.016 188.438 66.3902 188.438 70.312V85.8896H182.701V59.5263H188.438V63.2398C190.092 60.1971 192.935 58.9585 196.037 58.9585C201.571 58.9585 205.603 62.9834 205.603 69.1238ZM214.951 69.8976H228.13C227.408 65.6667 224.98 63.7069 221.669 63.7069C218.103 63.7069 215.673 65.8224 214.951 69.8976ZM233.975 73.9729H214.742C215.155 79.0784 217.947 81.5053 221.772 81.5053C225.081 81.5053 227.616 80.0606 229.115 76.1914L233.975 78.0482C231.751 83.9802 227.098 86.4574 221.876 86.4574C214.329 86.4574 208.951 80.9375 208.951 72.6839C208.951 64.4304 214.276 58.9608 221.722 58.9608C228.908 58.9608 234.027 64.4304 234.027 72.5282C234.027 72.993 234.027 73.5081 233.975 73.9729ZM236.026 77.8421L240.679 76.3448C241.507 80.0606 244.401 81.7617 247.813 81.7617C251.122 81.7617 253.191 80.5254 253.191 78.719C253.191 76.9652 251.587 76.1387 248.019 75.3145L245.433 74.6437C239.488 73.1991 237.008 70.6188 237.008 66.6489C237.008 62.1089 241.042 59.0135 247.246 59.0135C253.086 59.0135 257.688 62.0058 258.411 67.4731L253.604 68.659C252.982 65.1012 250.399 63.7596 247.246 63.7596C244.401 63.7596 242.54 64.8929 242.54 66.5436C242.54 68.5056 244.711 69.2268 247.866 70.0007L250.502 70.6188C256.034 72.0131 258.721 74.5407 258.721 78.5129C258.721 83.156 254.43 86.4574 247.866 86.4574C242.334 86.4574 237.474 83.8772 236.026 77.8421ZM27.8073 40.5122C31.1619 41.5059 34.7161 43.168 37.8986 45.9223C41.8039 49.3038 44.5458 53.7843 46.1015 59.3157L56.5072 30.418L27.8073 40.5122ZM47.4599 72.0062L42.0448 71.0836C41.9806 61.6258 39.3671 54.5834 34.2779 50.1578C26.5683 43.4542 15.472 44.8142 15.3618 44.8279L14.0654 39.4476L60.1922 23.2199L63.7418 26.7869L47.4576 72.0085L47.4599 72.0062Z" fill="#4531D7"/>
<path d="M42.5541 80.1659H42.5816C52.2737 80.1659 61.3852 76.4043 68.2435 69.5702C71.6287 66.2153 74.3132 62.2237 76.1419 57.8266C77.9706 53.4294 78.907 48.714 78.897 43.9533C78.9108 23.9731 62.6289 7.70408 42.6046 7.69035H42.577C37.8106 7.67755 33.0888 8.60734 28.6845 10.426C24.2803 12.2446 20.2809 14.9161 16.9174 18.286C13.5319 21.6408 10.8469 25.6323 9.01781 30.0294C7.18874 34.4266 6.25195 39.1421 6.26166 43.903C6.2479 63.8855 22.5298 80.1499 42.5541 80.1659ZM42.5816 85.7339H42.5518C37.0473 85.7449 31.5954 84.6664 26.5115 82.5607C21.4276 80.4551 16.8127 77.3642 12.9341 73.4669C9.03382 69.5915 5.9426 64.9827 3.83942 59.9073C1.73623 54.8318 0.662843 49.3905 0.681389 43.8984C0.670077 38.4062 1.75064 32.9663 3.86052 27.8936C5.9704 22.8209 9.0677 18.2161 12.9731 14.3458C16.8537 10.4581 21.4679 7.37616 26.5492 5.27811C31.6304 3.18006 37.0779 2.10748 42.577 2.12234H42.6092C48.1136 2.11148 53.5656 3.19009 58.6494 5.29572C63.7333 7.40135 68.3481 10.4922 72.2268 14.3893C76.1267 18.2649 79.2175 22.8738 81.3203 27.9493C83.4231 33.0247 84.4961 38.4659 84.4773 43.9579C84.4886 49.4501 83.408 54.89 81.2981 59.9627C79.1883 65.0354 76.091 69.6402 72.1855 73.5104C68.3049 77.3982 63.6907 80.4801 58.6095 82.5782C53.5283 84.6762 48.0807 85.7488 42.5816 85.7339Z" fill="#4531D7"/>
</g>
</svg>

<svg xmlns="http://www.w3.org/2000/svg" width="335" height="87" fill="none" viewBox="0 0 335 87"><mask id="a" width="335" height="87" x="0" y="0" maskUnits="userSpaceOnUse" style="mask-type:luminance"><path fill="#fff" d="M0 0h334.562v87H0z"/></mask><g fill="#4531d7" mask="url(#a)"><path d="M118.163 22.945 112.89 9.021l-5.277 13.924zm-16.183 14.96h-6.253l14.318-36.11h5.842l14.373 36.11h-6.461L120.024 28h-14.27zm39.922-4.953v4.953h-2.999c-4.807 0-7.342-2.94-7.342-7.48V1.795h5.741v28.27c0 1.855.775 2.887 2.583 2.887zm3.711-16.713h-4.911v-4.693h4.911V6.179l5.688-3.301v8.668h6.048v4.693h-6.048V28.98c0 2.58 1.032 3.972 3.258 3.972h2.79v4.953h-3.412c-5.429 0-8.324-3.405-8.324-8.563zm18.659 5.676h13.182c-.725-4.231-3.153-6.19-6.462-6.19-3.568 0-5.995 2.115-6.72 6.19m19.021 4.075h-19.228c.413 5.106 3.203 7.533 7.031 7.533 3.306 0 5.841-1.448 7.342-5.317l4.858 1.86c-2.224 5.93-6.877 8.406-12.097 8.406-7.549 0-12.925-5.517-12.925-13.773 0-8.254 5.323-13.721 12.769-13.721 7.186 0 12.303 5.467 12.303 13.568 0 .464 0 .98-.05 1.442zm17.875-15.012v6.088h-2.69c-3.361 0-5.736 2.63-5.736 6.859v13.98h-5.741v-26.36h5.741v4.127c1.498-3.199 3.979-4.694 6.978-4.694zm25.223 10.163v16.764h-5.738V22.07c0-3.766-2.226-6.035-5.324-6.035-3.57 0-6.103 2.372-6.103 6.294v15.578h-5.739V11.546h5.739v3.713c1.654-3.045 4.497-4.281 7.599-4.281 5.532 0 9.566 4.023 9.566 10.163m21.376 9.13c0-2.58-2.533-3.972-6.099-3.972-3.517 0-6.154 1.34-6.154 3.972 0 2.578 2.637 3.92 6.154 3.92 3.566 0 6.099-1.392 6.099-3.92m5.585-8.874v16.508h-5.379v-2.578c-1.603 2.062-4.394 3.145-8.014 3.145-5.945 0-10.337-2.992-10.337-8.15 0-5.106 4.497-8.201 10.699-8.201 3.258 0 5.792.927 7.343 2.578v-2.734c0-4.125-2.584-5.88-6.152-5.88-3.205 0-5.429 1.755-6.36 4.591l-4.807-1.91c1.604-5.363 6.101-7.788 11.374-7.788 6.098 0 11.633 3.198 11.633 10.42m6.64-5.158h-4.91v-4.693h4.91V6.179l5.688-3.301v8.668h6.049v4.693h-6.049V28.98c0 2.58 1.035 3.972 3.258 3.972h2.791v4.953h-3.412c-5.429 0-8.325-3.405-8.325-8.563zm14.394-4.693h5.738v26.359h-5.738zm-.879-7.43c0-2.218 1.652-3.61 3.825-3.61 2.12 0 3.774 1.392 3.774 3.61 0 2.221-1.654 3.56-3.774 3.56-2.173 0-3.825-1.341-3.825-3.56m14.96 7.43 7.031 18.673 6.98-18.673h6.101l-10.445 26.359h-5.376l-10.546-26.36zm25.827 10.369h13.185c-.723-4.231-3.153-6.19-6.464-6.19-3.566 0-5.996 2.115-6.721 6.19m19.026 4.075h-19.23c.413 5.106 3.203 7.533 7.03 7.533 3.307 0 5.842-1.448 7.341-5.317l4.859 1.86c-2.223 5.93-6.874 8.406-12.096 8.406-7.549 0-12.925-5.517-12.925-13.773 0-8.254 5.325-13.721 12.769-13.721 7.186 0 12.303 5.467 12.303 13.568 0 .464 0 .98-.051 1.442zM118.163 70.928l-5.273-13.925-5.277 13.927h10.548zM101.98 85.89h-6.253l14.321-36.11h5.841l14.373 36.11h-6.461l-3.775-9.905h-14.272zm30.363-26.361h5.737v26.36h-5.737zm-.878-7.427c0-2.221 1.652-3.613 3.825-3.613 2.12 0 3.774 1.394 3.774 3.613 0 2.216-1.654 3.557-3.774 3.557-2.171 0-3.825-1.339-3.825-3.557m25.682 6.859v6.09h-2.687c-3.361 0-5.738 2.628-5.738 6.86V85.89h-5.739V59.526h5.736v4.128c1.501-3.198 3.984-4.693 6.98-4.693zm12.687 21.977v4.952h-2.999c-4.807 0-7.343-2.942-7.343-7.48V49.78h5.741v28.268c0 1.857.776 2.89 2.584 2.89zm2.228-21.41h5.736V85.89h-5.736zm-.879-7.426c0-2.221 1.652-3.613 3.825-3.613 2.12 0 3.774 1.394 3.774 3.613 0 2.216-1.652 3.557-3.774 3.557-2.171 0-3.825-1.339-3.825-3.557m34.42 17.022V85.89h-5.739V70.053c0-3.766-2.223-6.037-5.323-6.037-3.568 0-6.103 2.374-6.103 6.296V85.89h-5.737V59.526h5.737v3.714c1.654-3.043 4.497-4.282 7.599-4.282 5.534 0 9.566 4.025 9.566 10.166m9.348.774h13.179c-.722-4.231-3.15-6.191-6.461-6.191-3.566 0-5.996 2.115-6.718 6.19m19.024 4.075h-19.233c.413 5.105 3.205 7.532 7.03 7.532 3.309 0 5.844-1.444 7.343-5.314l4.86 1.857c-2.224 5.932-6.877 8.41-12.099 8.41-7.547 0-12.925-5.52-12.925-13.774s5.325-13.723 12.771-13.723c7.186 0 12.305 5.47 12.305 13.567 0 .465 0 .98-.052 1.445m2.051 3.87 4.653-1.498c.828 3.716 3.722 5.417 7.134 5.417 3.309 0 5.378-1.237 5.378-3.043 0-1.754-1.604-2.58-5.172-3.404l-2.586-.671c-5.945-1.445-8.425-4.025-8.425-7.995 0-4.54 4.034-7.635 10.238-7.635 5.84 0 10.442 2.992 11.165 8.46l-4.807 1.185c-.622-3.558-3.205-4.9-6.358-4.9-2.845 0-4.706 1.134-4.706 2.785 0 1.962 2.171 2.683 5.326 3.457l2.636.618c5.532 1.394 8.219 3.922 8.219 7.894 0 4.643-4.291 7.944-10.855 7.944-5.532 0-10.392-2.58-11.84-8.615M27.807 40.512c3.355.993 6.91 2.655 10.092 5.41 3.905 3.38 6.647 7.861 8.203 13.393l10.405-28.898zM47.46 72.005l-5.415-.922c-.064-9.458-2.678-16.5-7.767-20.926-7.71-6.704-18.806-5.344-18.916-5.33l-1.297-5.38L60.192 23.22l3.55 3.567-16.284 45.221z"/><path d="M42.554 80.166h.028c9.692 0 18.803-3.762 25.661-10.596a36 36 0 0 0 7.899-11.743 35.9 35.9 0 0 0 2.755-13.874c.014-19.98-16.268-36.249-36.292-36.263h-.028a36.15 36.15 0 0 0-13.892 2.736 36.1 36.1 0 0 0-11.768 7.86 36 36 0 0 0-7.9 11.743 35.9 35.9 0 0 0-2.755 13.874C6.248 63.886 22.53 80.15 42.554 80.166m.028 5.568h-.03a41.7 41.7 0 0 1-16.04-3.173 41.6 41.6 0 0 1-13.578-9.094 41.5 41.5 0 0 1-9.095-13.56A41.5 41.5 0 0 1 .681 43.898a41.5 41.5 0 0 1 3.18-16.004 41.5 41.5 0 0 1 9.112-13.548A41.6 41.6 0 0 1 26.55 5.278a41.7 41.7 0 0 1 16.028-3.156h.032a41.7 41.7 0 0 1 16.04 3.174 41.6 41.6 0 0 1 13.578 9.093 41.5 41.5 0 0 1 9.093 13.56 41.5 41.5 0 0 1 3.157 16.009 41.5 41.5 0 0 1-3.179 16.005 41.5 41.5 0 0 1-9.112 13.547 41.6 41.6 0 0 1-13.577 9.068 41.7 41.7 0 0 1-16.027 3.156"/></g></svg>
